X:173 
T:Pub at the Crossroads* (hornpipe), The 
S:Grier MS
B:CRE4.216
F:file ID: cre.4/173pub_cr
L:1/8
%Q:150
M:4/4
R:hornpipe
K:A
(3EFG|:A2BG ABcd|edcB ABcA|B2BA Bfge|dcBA GBGE|
A2 (3BAG ABcd|edcB A2 a2|gbge faf^d|1 e2 ef edcB:|\
[2 e2efe2||
|:dc|B2 BA Bfge|dcBA GBGE|e2 (3fe^d efgb|agfe dcBA|
fFFE F2 af|eEED E2 ed|(3cde cA BdBG|A2AG A2:|

%%%

